X: 0951
M: 4/4
L: 1/8
K: G
d>d |\
g2d>d d2d>c | B2G>G G2d>d | e2c>c A2A>G | F2d>d d2(3def |\
g2d>d d2d>c | B2G>G G2d>d | e>g A>c B>d F>A | G2G>G G2 :|
|: F>G |\
g2d>d d2d>c | B2G>G G2d>d | e>g A>c B>d F>A | G2G>G G2 :|
|: z2 |\
[B4G4] [A4D4] | [G2B,2][GB,]>[GB,] [G2B,2][A2D2] |\
[B2G2][dB]>[dB] [cA]>[cA] [BG]>[BG] | [A2D2][AD]>[AD] [A2D2]z2 |\
[B4G4] [A4D4] | [G2B,2][GB,]>[GB,] [G2B,2][A2D2] |\
|: z2 |\
g4 d4 | B2G>G G2d>d | e2c>c ABAG | F2d>d d2d>d |\
g4 d4 | B2G>G G2d2 | (3egf (3edc (3Bcd (3cBA | G2G>G G2 :|

